svgs/innertune.svg

<svg width="192" height="192" viewBox="0 0 192 192" fill="none" xmlns="http://www.w3.org/2000/svg">
<path d="M57 149.871C57 159.374 49.3224 167.37 39.4999 167.37C29.6777 167.37 22 159.374 22 149.871C22 140.367 29.6777 132.37 39.4999 132.37C49.3224 132.37 57 140.367 57 149.871Z" stroke="black" stroke-width="12"/>
<path d="M139 136.5C139 146.004 131.323 154 121.5 154C111.678 154 104 146.004 104 136.5C104 126.996 111.678 119 121.5 119C131.323 119 139 126.996 139 136.5Z" stroke="black" stroke-width="12"/>
<path d="M57 149.685V60" stroke="black" stroke-width="12" stroke-linecap="round" stroke-linejoin="round"/>
<path d="M139 135.637V55.3497V51" stroke="black" stroke-width="12" stroke-linecap="round" stroke-linejoin="round"/>
<path d="M68 68C74.0752 68 79 63.0752 79 57.0001C79 50.9249 74.0752 46 68 46C61.9248 46 57 50.9249 57 57.0001C57 63.0752 61.9248 68 68 68Z" stroke="black" stroke-width="12"/>
<path d="M168.392 38.9406C167.605 40.225 166.556 41.3508 165.306 42.2536C164.056 43.1565 162.629 43.8187 161.107 44.2026C161.107 44.2026 116.63 53.2301 115.108 53.6141C112.426 54.2914 109.578 54.0724 107.049 52.9943C104.519 51.9161 102.466 50.0457 101.237 47.7019C100.009 45.3581 99.6829 42.6859 100.314 40.1409C100.945 37.5959 102.494 35.3356 104.698 33.7454C105.948 32.8426 107.374 32.1802 108.896 31.7963C110.418 31.4123 151.821 23.1603 154.895 22.3848C157.187 21.8067 159.61 21.8814 161.858 22.5994C164.105 23.3174 166.076 24.6465 167.52 26.4186C168.965 28.1907 169.819 30.3262 169.974 32.5551C170.13 34.784 169.579 37.0062 168.392 38.9406Z" stroke="black" stroke-width="12" stroke-linecap="round" stroke-linejoin="round"/>
</svg>

<svg xmlns="http://www.w3.org/2000/svg" width="192" height="192" fill="none" viewBox="0 0 192 192"><path stroke="#000" stroke-width="12" d="M57 149.871c0 9.503-7.678 17.499-17.5 17.499S22 159.374 22 149.871c0-9.504 7.678-17.501 17.5-17.501S57 140.367 57 149.871Zm82-13.371c0 9.504-7.677 17.5-17.5 17.5-9.822 0-17.5-7.996-17.5-17.5s7.678-17.5 17.5-17.5c9.823 0 17.5 7.996 17.5 17.5Z"/><path stroke="#000" stroke-linecap="round" stroke-linejoin="round" stroke-width="12" d="M57 149.685V60m82 75.637V51"/><path stroke="#000" stroke-width="12" d="M68 68c6.075 0 11-4.925 11-11s-4.925-11-11-11-11 4.925-11 11 4.925 11 11 11Z"/><path stroke="#000" stroke-linecap="round" stroke-linejoin="round" stroke-width="12" d="M168.392 38.94a11.522 11.522 0 0 1-3.086 3.314 12.315 12.315 0 0 1-4.199 1.949s-44.477 9.027-45.999 9.411a12.69 12.69 0 0 1-8.059-.62c-2.53-1.078-4.583-2.948-5.812-5.292a10.694 10.694 0 0 1-.923-7.561c.631-2.545 2.18-4.805 4.384-6.396a12.312 12.312 0 0 1 4.198-1.949c1.522-.384 42.925-8.636 45.999-9.411a12.717 12.717 0 0 1 6.963.214c2.247.718 4.218 2.047 5.662 3.82 1.445 1.772 2.299 3.907 2.454 6.136a10.754 10.754 0 0 1-1.582 6.386Z"/></svg>
